Adwaita++/actions/16/package-available.svg

<svg fill="none" height="16" viewBox="0 0 16 16" width="16" xmlns="http://www.w3.org/2000/svg" xmlns:xlink="http://www.w3.org/1999/xlink">
  <defs>
    <clipPath id="clip0">
      <path d="m0 0h16v16h-16z"/>
    </clipPath>
  </defs>
  <g clip-path="url(#clip0)">
    <path clip-rule="evenodd" d="m5.32617 0c-.18492.00214953-.3644.0033372-.53871.00449076-1.40707.00931134-2.47842.01640104-3.37144.50918124-.501834.27686-.897632.745198-1.117192 1.330078-.2195599.58488-.298828 1.27944-.298828 2.15625v8c0 .8768.0792481 1.5714.298828 2.1562.21956.5849.615358 1.0533 1.117192 1.3301.67902.3746 2.23256.4943 3.91015.5137h.00391 5.33982.0039c.1849-.0021.3644-.0033.5386-.0045 1.4068-.0093 2.4766-.0164 3.3696-.5092.5019-.2768.8977-.7452 1.1172-1.3301.22-.5848.3008-1.2794.3008-2.1562v-8c0-.87681-.0792-1.57136-.2988-2.15625-.2196-.58488-.6154-1.053198-1.1172-1.330078-.8934-.4929372-1.9652-.4999785-3.3731-.50922743-.1738-.00114178-.3527-.00231721-.5371-.00444457h-.0039-2.00388-3.33594zm1.42383 3h2.5v3.75h3.75v2.5h-3.75v3.75h-2.5v-3.75h-3.75v-2.5h3.75z" fill="#444" fill-rule="evenodd"/>
  </g>
</svg>

<svg xmlns="http://www.w3.org/2000/svg" fill="none" width="16" height="16" viewBox="0 0 16 16">
 <g clip-path="url(#clip0)">
  <path fill="#444" fill-rule="evenodd" d="M5.32617 0C5.14125 0.00214953 4.96177 0.0033372 4.78746 0.00449076C3.38039 0.0138021 2.30904 0.0208918 1.41602 0.513672C0.914186 0.790532 0.518388 1.25887 0.298828 1.84375C0.0792681 2.42863 0 3.12319 0 4V12C0 12.8768 0.0792481 13.5714 0.298828 14.1562C0.518388 14.7411 0.914186 15.2095 1.41602 15.4863C2.09504 15.8609 3.64858 15.9806 5.32617 16H5.33008H10.6699H10.6738C10.8587 15.9979 11.0382 15.9967 11.2124 15.9955C12.6192 15.9862 13.689 15.9791 14.582 15.4863C15.0839 15.2095 15.4797 14.7411 15.6992 14.1562C15.9192 13.5714 16 12.8768 16 12V4C16 3.12319 15.9208 2.42864 15.7012 1.84375C15.4816 1.25887 15.0858 0.790552 14.584 0.513672C13.6906 0.0207348 12.6188 0.0136935 11.2109 0.00444457C11.0371 0.00330279 10.8582 0.00212736 10.6738 0H10.6699H8.66602H5.33008H5.32617ZM6.75 3H9.25V6.75H13V9.25H9.25V13H6.75V9.25H3V6.75H6.75V3Z" clip-rule="evenodd"/>
 </g>
 <defs>
  <clipPath id="clip0">
   <rect fill="#fff" width="16" height="16"/>
  </clipPath>
 </defs>
</svg>
